pentagram.svg

<svg fill="currentColor" viewBox="0 0 24 24"><path d="m16.15 14.4 2.56 7.86L12 17.4l-6.72 4.9 2.57-7.93-6.7-4.87h8.29L12 1.61l2.56 7.89h8.33zm-2.85 2.07 2.56 1.86-.98-3.01zM11 9.5h2l-1-3.03zm-.26 6.97L9.13 15.3l-1 3.07zM18.28 11h-3.23l.62 1.9zm-7.75 0-.91 2.8L12 15.54l2.39-1.72-.92-2.82zm-4.77 0 2.58 1.87.61-1.87z"/></svg>

<svg  viewBox="0 0 24 24" fill="currentColor"><path  d="M16.15 14.4L18.71 22.26L12 17.4L5.28 22.3L7.85 14.37L1.15 9.5H9.44L12 1.61L14.56 9.5H22.89L16.15 14.4M13.3 16.47L15.86 18.33L14.88 15.32L13.3 16.47M11 9.5H13L12 6.47L11 9.5M10.74 16.47L9.13 15.3L8.13 18.37L10.74 16.47M18.28 11H15.05L15.67 12.9L18.28 11M10.53 11L9.62 13.8L12 15.54L14.39 13.82L13.47 11H10.53M5.76 11L8.34 12.87L8.95 11H5.76Z"/></svg>
